src/topics/icons/blocs.svg

<svg height="283" preserveAspectRatio="xMidYMid" viewBox="0 0 256 283" width="256" xmlns="http://www.w3.org/2000/svg"><path d="m128.337681.0776965c-6.700825 0-13.402646 1.73322957-19.407191 5.20068482l-88.6865678 51.20298828c-12.01008562 6.9339144-19.40818679 19.74786-19.40818679 33.6146927v102.4069727c0 13.867829 7.39810117 26.681774 19.40818679 33.614693l88.6865678 51.203984c6.004545 3.466459 12.706366 5.199689 19.407191 5.199689 6.701821 0 13.402646-1.73323 19.408187-5.199689l88.686568-51.203984c12.010085-6.932919 19.408187-19.746864 19.408187-33.614693v-102.4069727c0-13.8668327-7.398102-26.6807783-19.408187-33.6146927l-88.686568-51.20298828c-6.005541-3.46745525-12.706366-5.20068482-19.408187-5.20068482" fill="#fff"/><path d="m236.432436 56.4823658-88.686568-51.20398448c-12.010086-6.93391439-26.805292-6.93391439-38.815378 0l-88.6865678 51.20398448c-12.01008562 6.9329182-19.40818679 19.7468638-19.40818679 33.6136965v102.4069727c0 13.867829 7.39810117 26.681774 19.40818679 33.614693l88.6865678 51.203984c12.010086 6.933914 26.805292 6.933914 38.815378 0l88.686568-51.203984c12.010085-6.932919 19.408187-19.746864 19.408187-33.614693v-102.4069727c0-13.8668327-7.398102-26.6807783-19.408187-33.6136965zm7.209836 131.1228012c0 12.540016-6.689867 24.127751-17.550443 30.398257l-80.202708 46.305121c-10.860576 6.270506-24.241308 6.270506-35.101884 0l-80.2027078-46.305121c-10.8605759-6.270506-17.5504436-17.858241-17.5504436-30.398257v-92.6102409c0-12.5410117 6.6898677-24.1287471 17.5504436-30.3982568l80.2027078-46.3051207c10.860576-6.2705058 24.241308-6.2705058 35.101884 0l80.202708 46.3051207c10.860576 6.2695097 17.550443 17.8572451 17.550443 30.3982568z" fill="#298aec"/><g fill="#44546c"><path d="m73.6801868 109.915642h112.9856502v9.905307h-112.9856502z"/><path d="m73.6801868 143.223533h112.9856502v9.905307h-112.9856502z"/><path d="m73.6801868 176.422848h112.9856502v9.905308h-112.9856502z"/></g></svg>

<?xml version="1.0" encoding="UTF-8" standalone="no"?>
<svg width="256px" height="283px" viewBox="0 0 256 283" version="1.1" xmlns="http://www.w3.org/2000/svg" xmlns:xlink="http://www.w3.org/1999/xlink" preserveAspectRatio="xMidYMid">
	<g>
		<path d="M128.337681,0.0776964981 C121.636856,0.0776964981 114.935035,1.81092607 108.93049,5.27838132 L20.2439222,56.4813696 C8.23383658,63.415284 0.835735409,76.2292296 0.835735409,90.0960623 L0.835735409,192.503035 C0.835735409,206.370864 8.23383658,219.184809 20.2439222,226.117728 L108.93049,277.321712 C114.935035,280.788171 121.636856,282.521401 128.337681,282.521401 C135.039502,282.521401 141.740327,280.788171 147.745868,277.321712 L236.432436,226.117728 C248.442521,219.184809 255.840623,206.370864 255.840623,192.503035 L255.840623,90.0960623 C255.840623,76.2292296 248.442521,63.415284 236.432436,56.4813696 L147.745868,5.27838132 C141.740327,1.81092607 135.039502,0.0776964981 128.337681,0.0776964981" fill="#FFFFFF"></path>
		<path d="M236.432436,56.4823658 L147.745868,5.27838132 C135.735782,-1.65553307 120.940576,-1.65553307 108.93049,5.27838132 L20.2439222,56.4823658 C8.23383658,63.415284 0.835735409,76.2292296 0.835735409,90.0960623 L0.835735409,192.503035 C0.835735409,206.370864 8.23383658,219.184809 20.2439222,226.117728 L108.93049,277.321712 C120.940576,284.255626 135.735782,284.255626 147.745868,277.321712 L236.432436,226.117728 C248.442521,219.184809 255.840623,206.370864 255.840623,192.503035 L255.840623,90.0960623 C255.840623,76.2292296 248.442521,63.415284 236.432436,56.4823658 L236.432436,56.4823658 Z M243.642272,187.605167 C243.642272,200.145183 236.952405,211.732918 226.091829,218.003424 L145.889121,264.308545 C135.028545,270.579051 121.647813,270.579051 110.787237,264.308545 L30.5845292,218.003424 C19.7239533,211.732918 13.0340856,200.145183 13.0340856,187.605167 L13.0340856,94.9949261 C13.0340856,82.4539144 19.7239533,70.866179 30.5845292,64.5966693 L110.787237,18.2915486 C121.647813,12.0210428 135.028545,12.0210428 145.889121,18.2915486 L226.091829,64.5966693 C236.952405,70.866179 243.642272,82.4539144 243.642272,94.9949261 L243.642272,187.605167 L243.642272,187.605167 Z" fill="#298AEC"></path>
		<path d="M73.6801868,109.915642 L186.665837,109.915642 L186.665837,119.820949 L73.6801868,119.820949 L73.6801868,109.915642 Z" fill="#44546C"></path>
		<path d="M73.6801868,143.223533 L186.665837,143.223533 L186.665837,153.12884 L73.6801868,153.12884 L73.6801868,143.223533 Z" fill="#44546C"></path>
		<path d="M73.6801868,176.422848 L186.665837,176.422848 L186.665837,186.328156 L73.6801868,186.328156 L73.6801868,176.422848 Z" fill="#44546C"></path>
	</g>
</svg>
